X:1
T:Title
%%score { 1 | 2 }
L:1/8
Q:1/4=100
M:6/8
K:F
V:1 treble nm="Grand Piano"
V:2 bass 
V:1
 AAA BAG | [DF][CE]D C3 | C2 [EG] [EG]3 | F2 A A3 | AAA BAG | [DF][CE]D C3 | A3 G3 | [A,CF]6 | %8
w: Charles~H.~Gabriel * * * * *||||||||
 cdc [Ac][GB][FA] | [EB][DB][CB] [EB]3 | [EB][Ec][EB] [EB][EA][EG] | AAA A3 | cdc cBA | %13
w: |||||
 [DB][DB][DB] D2 D | A3 G3 | [A,CF]6 |] %16
w: |||
V:2
 [F,CF][F,CF][F,CF] [F,DF][F,CF][F,A,C] | [B,,B,][B,,B,][B,,F,B,] [F,A,]3 | %2
 [C,E,B,]2 [C,B,] [C,B,]3 | [F,A,C]2 [F,CF] [F,CF]3 | [F,CF][F,CF][F,CF] [F,DF][F,CF][F,A,C] | %5
 [B,,B,][B,,B,][B,,F,B,] [F,A,]3 | [C,F,C]3 [C,B,C]3 | [F,,F,]6 | %8
 [F,A,F][F,B,F][F,A,F] [F,C][F,C][F,C] | [C,C][C,C][C,G,] [C,C]3 | %10
 [C,G,][C,G,][C,G,] [C,G,][C,C][C,C] | [F,CF][F,CE][F,CD] [F,CF]3 | %12
 [F,A,F][F,B,F][F,A,F] [F,A,F][F,DF][F,C_E] | [B,,B,][B,,F,][B,,F,] .[B,,F,B,]3 | %14
 [C,F,C]3 [C,B,C]3 | [F,,F,]6 |] %16

